design-system/icons/indeterminate_check_box--labs-icons.svg

<svg width="22" height="20" viewBox="0 0 22 20" fill="none" xmlns="http://www.w3.org/2000/svg">
<mask id="mask0_306_110" style="mask-type:alpha" maskUnits="userSpaceOnUse" x="0" y="0" width="22" height="22">
<rect x="0.833496" width="21.0833" height="21.0833" fill="#D9D9D9"/>
</mask>
<g mask="url(#mask0_306_110)">
<path d="M8.58606 11.6837H14.1644C14.4865 11.6837 14.761 11.5702 14.9879 11.3433C15.2149 11.1163 15.3283 10.8418 15.3283 10.5197C15.3283 10.1976 15.2149 9.92308 14.9879 9.69614C14.761 9.4692 14.4865 9.35573 14.1644 9.35573H8.58606C8.26395 9.35573 7.98943 9.4692 7.76249 9.69614C7.53555 9.92308 7.42208 10.1976 7.42208 10.5197C7.42208 10.8418 7.53555 11.1163 7.76249 11.3433C7.98943 11.5702 8.26395 11.6837 8.58606 11.6837ZM5.2259 19.0189C4.58169 19.0189 4.03264 18.792 3.57877 18.3381C3.12489 17.8842 2.89795 17.3352 2.89795 16.691V4.39236C2.89795 3.74815 3.12489 3.1991 3.57877 2.74523C4.03264 2.29135 4.58169 2.06441 5.2259 2.06441H17.5245C18.1687 2.06441 18.7178 2.29135 19.1716 2.74523C19.6255 3.1991 19.8525 3.74815 19.8525 4.39236V16.691C19.8525 17.3352 19.6255 17.8842 19.1716 18.3381C18.7178 18.792 18.1687 19.0189 17.5245 19.0189H5.2259Z" fill="#1C1B1F"/>
</g>
</svg>

<svg xmlns="http://www.w3.org/2000/svg" width="22" height="20" fill="none" viewBox="0 0 22 20"><mask id="a" width="22" height="22" x="0" y="0" maskUnits="userSpaceOnUse" style="mask-type:alpha"><path fill="#d9d9d9" d="M.833 0h21.083v21.083H.833z"/></mask><g mask="url(#a)"><path fill="#1c1b1f" d="M8.586 11.684h5.578q.483 0 .824-.34.34-.341.34-.824t-.34-.824a1.12 1.12 0 0 0-.824-.34H8.586q-.483 0-.824.34t-.34.824.34.823.824.34m-3.36 7.335a2.24 2.24 0 0 1-1.647-.68 2.24 2.24 0 0 1-.681-1.648V4.392q0-.966.68-1.647a2.24 2.24 0 0 1 1.648-.68h12.299q.966 0 1.647.68.68.681.68 1.647v12.299q0 .966-.68 1.647a2.24 2.24 0 0 1-1.648.68z"/></g></svg>
